app/dist/common/images/hawaiian-electric-industries.svg

<svg fill="none" height="18" width="18" xmlns="http://www.w3.org/2000/svg"><path d="m0 0h18v18h-18z" fill="#00497b"/><path d="m3.167 8.29v-.457h2.187v.457h-.627v.507h1.628v-.507h-.636v-.457h2.187v.457h-.67v1.42h.67v.457h-2.186v-.457h.636v-.456h-1.629v.456h.627v.457h-2.187v-.457h.678v-1.42zm5.833 0h-.73v-.457h4.011v.964h-.729v-.507h-1.67v.507h1.123v.495h-1.123v.418h1.67v-.418h.73v.875h-4.012v-.457h.73zm5.833-.457h-2.033v.457h.542v1.42h-.542v.457h2.034v-.457h-.542v-1.42h.542v-.457z" fill="#fff"/><path d="m15.75 11.75h-13.5v-5.5h13.5z" stroke="#fff" stroke-width=".5"/></svg>

<!-- by TradingView --><svg width="18" height="18" fill="none" xmlns="http://www.w3.org/2000/svg"><path fill="#00497B" d="M0 0h18v18H0z"/><path d="M3.167 8.29v-.457h2.187v.457h-.627v.507h1.628V8.29h-.636v-.457h2.187v.457h-.67v1.42h.67v.457H5.72V9.71h.636v-.456H4.727v.456h.627v.457H3.167V9.71h.678V8.29h-.678zM9 8.29h-.73v-.457h4.011v.964h-.729V8.29h-1.67v.507h1.123v.495H9.882v.418h1.67v-.418h.73v.875H8.27V9.71H9V8.29zM14.833 7.833H12.8v.457h.542v1.42H12.8v.457h2.034V9.71h-.542V8.29h.542v-.457z" fill="#fff"/><path d="M15.75 11.75H2.25v-5.5h13.5v5.5z" stroke="#fff" stroke-width=".5"/></svg>
